X:1
T:Title
%%score { ( 1 3 ) | 2 }
L:1/8
M:4/4
K:G
V:1 treble nm="Grand Piano"
V:3 treble 
V:2 treble 
V:1
 z4 z2[Q:1/4=100] D2 | G3 A B2 D2 | G2 B2 d2 d2 | e3 d c2 B2 |[M:3/4] [FA]6 |[M:1/4] D2 | %6
[M:4/4] [DG]3 A B2 D2 |[M:9/8] G2 B- B d2- d B2 |[M:4/4] A3 d d2 [G^c]2 | [Fd]6 z2 | %10
 [Bd]>[Ac] [GB][Ac] [Bd]2 G2 | c>B AG [FA]3 D | EFGA Bc d2 |[M:5/4] e>d cB [DFA]6 | %14
[M:4/4] z4 [FA]2 z2 | B>B BB [Ec]3 A |[M:9/8] Bcd [GB][Gc][Gd] [Ge]3 | %17
[M:7/8] [Gd]>[Gc][GB] [FA] [B,DG]3 |[M:1/4] D2 |[M:4/4] G3 A B2 D2 | G2 B2 d2 d2 | e3 d c2 B2 | %22
[M:3/4] [FA]6 |[M:1/4] D2 |[M:4/4] [DG]3 A B2 D2 |[M:9/8] G2 B- B d2- d B2 | %26
[M:4/4] A3 d d2 [G^c]2 | [Fd]6 z2 | [Bd]>[Ac] [GB][Ac] [Bd]2 G2 | c>B AG [FA]3 D | EFGA Bc d2 | %31
[M:5/4] e>d cB [DFA]6 |[M:4/4] z4 [FA]2 z2 | B>B BB [Ec]3 A |[M:9/8] Bcd [GB][Gc][Gd] [Ge]3 |] %35
V:2
 z4 z2 [G,B,]2 | [G,B,D]3 [G,CD] [G,DG]2 [G,B,]2 | [G,B,D]2 [G,DG]2 [G,B,G]2 [G,B,G]2 | %3
 [CG]3 [B,DG] [A,DF]2 [G,DG]2 |[M:3/4][K:bass] [D,D]6 |[M:1/4] [D,F,]2 | %6
[M:4/4] [B,,G,]3 [D,F,D] [G,D]2 [G,B,]2 | %7
[M:9/8][K:treble] [G,B,D]2 [G,DG]- [G,DG] [G,B,G]2- [G,B,G] [G,DG]2 | %8
[M:4/4] [A,DF]3 [A,F][K:bass] [A,E]2 [A,,A,]2 | [D,A,]6 z2 | [G,D]>[G,D] [G,D][G,D] [G,D]2 [B,D]2 | %11
 [A,DF]>[G,DG][K:bass] [F,D][E,^CE] [D,D]3 [B,,D,B,] | %12
 [C,E,C][D,F,D][E,G,E][K:treble][F,A,F] [G,B,G][A,CA] [B,DB]2 | %13
[M:5/4] [CG]>[B,DG] [A,DF][G,DG][K:bass] D,6 |[M:4/4] G,>A, B,G, D,2 z2 | %15
 [G,D]>[G,D] [G,D][G,D] [C,G,]3[K:treble] [CDF] | %16
[M:9/8] [B,DG][A,DF][G,B,G][K:bass] [=F,D][E,C][D,B,] [C,C]3 | %17
[M:7/8] [D,B,]>[D,D][D,D] [D,C] [G,,G,]3 |[M:1/4] [G,B,]2 | %19
[M:4/4][K:treble] [G,B,D]3 [G,CD] [G,DG]2 [G,B,]2 | [G,B,D]2 [G,DG]2 [G,B,G]2 [G,B,G]2 | %21
 [CG]3 [B,DG] [A,DF]2 [G,DG]2 |[M:3/4][K:bass] [D,D]6 |[M:1/4] [D,F,]2 | %24
[M:4/4] [B,,G,]3 [D,F,D] [G,D]2 [G,B,]2 | %25
[M:9/8][K:treble] [G,B,D]2 [G,DG]- [G,DG] [G,B,G]2- [G,B,G] [G,DG]2 | %26
[M:4/4] [A,DF]3 [A,F][K:bass] [A,E]2 [A,,A,]2 | [D,A,]6 z2 | [G,D]>[G,D] [G,D][G,D] [G,D]2 [B,D]2 | %29
 [A,DF]>[G,DG][K:bass] [F,D][E,^CE] [D,D]3 [B,,D,B,] | %30
 [C,E,C][D,F,D][E,G,E][K:treble][F,A,F] [G,B,G][A,CA] [B,DB]2 | %31
[M:5/4] [CG]>[B,DG] [A,DF][G,DG][K:bass] D,6 |[M:4/4] G,>A, B,G, D,2 z2 | %33
 [G,D]>[G,D] [G,D][G,D] [C,G,]3[K:treble] [CDF] | %34
[M:9/8] [B,DG][A,DF][G,B,G][K:bass] [=F,D][E,C][D,B,] [C,C]3 |] %35
V:3
 x8 | x8 | x8 | x8 |[M:3/4] x6 |[M:1/4] x2 |[M:4/4] x8 |[M:9/8] x9 |[M:4/4] x8 | x8 | x8 | x8 | %12
 x8 |[M:5/4] x10 |[M:4/4] [B,DG]2 z2 D>C B,A, | x8 |[M:9/8] x9 |[M:7/8] x7 |[M:1/4] x2 | %19
[M:4/4] x8 | x8 | x8 |[M:3/4] x6 |[M:1/4] x2 |[M:4/4] x8 |[M:9/8] x9 |[M:4/4] x8 | x8 | x8 | x8 | %30
 x8 |[M:5/4] x10 |[M:4/4] [B,DG]2 z2 D>C B,A, | x8 |[M:9/8] x9 |] %35

